X: 3
T: The Jig Of Slurs
R: jig
M: 6/8
L: 1/8
K: Dmaj
|: c/B/ |A2 d dcd | Bdd Add | Bdd Add | Bee edB |
A2 d dcd | Bdd A2 d | Bdd cde | fdd d2 :|
|: B |A2 f f^ef | aff fed | B2 e e^de | fee edB |
A2 f f^ef | aff f2 d | Bdd cde | fdc d2 :|
K: GMaj
|: G |G2 g gfg | agf gdB | G2 g gfg | agf g2 b |
G2 g gfg | agf g2 B | Bee efg | fed e2 :|
|: d/B/ |GBB Bdd | dee egg | GBB Bdd | dee edB |
GBB Bdd | dee e2 B | e^de efg | fed e2 :|


Tune 35	Setting 26358

